X:1
T:James Gibb editions
T:O Domine Jesu Christe - Guerrero
T:#
%%score [ 1 2 3 4 ]
L:1/8
Q:1/4=150
M:none
K:C
V:1 treble nm="Soprano" snm="S"
V:2 treble nm="Alto" snm="A"
V:3 treble-8 nm="Tenor" snm="T"
V:4 bass nm="Bass" snm="B"
V:1
"^O Domine Jesu Christe""^Francisco Guerrero\n(1528-99)" z16 | z16 | z8 E8- | E8 F8- | F4 E4 E8- | %5
w: ||O|* Do\-|* mi- ne|
 E16 |[Q:1/4=180][Q:1/4=180][Q:1/4=180][Q:1/4=180] A12 G4 | F8 E8 | z16 | A8 c8- | c4 B4 A8 | %11
w: |Je- su|Chri- ste,||O Do\-|* mi- ne|
 e12 d4- | d4 (c8 B2 A2 | B4 ^c4 d8) | A16- | A8 z8 | B16 | c12 B4 | B4 (d8 c4- | c4) B4 (A8- | %20
w: Je- su|* Chri\- * *||ste,||O|Do- mi-|ne Je\- *|* su Chri\-|
 A4 ^G2 ^F2) G8 | z16 | z4 =G4 A8 | B8 c8 | z16 | G8 A8 | B8 c4 A4 | c6 B2 A4 G4 | (F2 E2 E8 D4) | %29
w: * * * ste,||a- do-|ro te||a- do-|ra te in|cru- ce vul- ne-|ra\- * * *|
 E8 z8 | A8 c8- | c4 B4 A4 ^G4 | (A2 =G2 F2 E2 F2 E2 A4- | A4 ^G4) A8 | z4 A8 D4 | A8 B4 c4- | %36
w: tum,|in cru\-|* ce vul- ne-|ra\- * * * * * *|* * tum|fel- le|et a- ce\-|
 c2 c2 B4 (A8- | A4 ^G2 ^F2 G4 A4 | =G4 =F4) E8 | z16 | z16 | B16 | c12 A4 | B16 | z4 A4 A8 | %45
w: * to po- ta\-||* * tum:|||de-|pre- cor|te,|de- pre-|
 G8 G8 | E8 F8- | F4 D4 E8 | z4 G4 G8 | E4 G4 A4 G4 | c8 z8 | z4 c4 d6 d2 | c4 A6 A2 c4 | %53
w: cor te,|de- pre\-|* cor te,|ut vul-|ne- ra tu- a|sint|re- me- di-|um a- ni- mae|
 B4 A4 z4 A4 | E4 A8 ^G4 | A8 z8 | z16 | z8 !courtesy!=G8 | A6 A2 G4 E4- | E2 E2 G4 F8 | %60
w: me- ae, a-|ni- mae me-|ae,||re-|me- di- um a\-|* ni- mae me-|
 E4 G4 G4 E4- | E4 D4[Q:1/4=177] E8- |[Q:1/4=169] E16 |[Q:1/4=160] E16 |[Q:1/4=156] E16 |] %65
w: ae, a- ni- mae|* me- ae.||||
V:2
 z8 E8- | E4 (D2 C2 D4) E4 | B,4 E8 D4 | C4 B,4 C4 (D4- | D2 C2 B,2 A,2 B,4) (C4- | %5
w: O|* Do\- * * mi-|ne Je- su|Chri- ste, Je- su|* * * * * Chri\-|
 C2 B,2 A,2 B,2 C2 D2 E4- | E4 D4 C4 (B,2 C2 | D2 A,2 D8) C4- | C4 B,2 A,2 B,4 ^C4) | D8 z4 C4 | %10
w: |* ste, Je- su *|* * * Chri\-||ste, O|
 A,4 B,4 (C2 A,2) A4- | A4 G8 F4 | E16 | z4 E4 F8- | F4 E4 E4 D4- | D4 (=C8 B,2 A,2 | %16
w: Do- mi- ne * Je\-|* su Chri-|ste,|O Do\-|* mi- ne Je\-|* su * *|
 B,4 A,8 ^G,4) | (A,2 B,2 C2 D2 E4 D4- | D2 C2 B,4) A,4 E4- | E4 E4 E8 | E16 | z16 | C8 (F6 E2 | %23
w: |Chri\- * * * * *|* * * ste, Je\-|* su Chri-|ste,||a- do\- *|
 D4) (E6 D2 E2 C2) | D4 G4 E4 (F4- | F2 D2 E4) F4 C4 | D4 B,4 E8 | z4 C4 E6 D2 | C4 B,4 C4 A,4 | %29
w: * ro * * *|te, a- do- ro|* * * te, a-|do- ro te|in cru- ce|vul- ne- ra- tum,|
 C4 B,4 A,2 C4 B,2 | D8 G,4 G4 | G4 F4 E4 D4 | (^C4 D6 A,2 =C4 | B,8) A,4 C4 | (D4 E4) D8 | %35
w: in cru- ce vul- ne-|ra- tum, in|cru- ce vul- ne-|ra\- * * *|* tum, vul-|ne\- * ra-|
 E8 z4 E4- | E4 B,4 C4 D4 | E8 B,4 (C4- | C2 B,2) A,4 G,4 G4- | G4 (F2 E2 F2 E2 E4- | E4 D4) E8- | %41
w: tum, fel\-|* le et a-|ce- to po\-|* * ta- tum, po\-|* ta\- * * * *|* * tum:|
 E8 z4 E4- | E4 (E8 D4- | D4 B,4 B,8 | z4 E4 F8 | D8 E8 | z4 C4 C8- | C4 B,4 C8- | C16 | C8 z4 C4 | %50
w: * de\-|* pre\- *|* cor te,|de- pre-|cor te,|de- pre\-|* cor te,||* ut|
 C8 A,4 C4 | D4 C4 F8 | E8) z4 E4 | F6 F2 E4 C4- | C2 C2 E4 (E6 D2 | C4 D4) E8 | z4 E4 F6 F2 | %57
w: vul- ne- ra|tu- a sint|* re-|me- di- um a\-|* ni- mae me\- *|* * ae,|re- me- di-|
 E4 C6 C2 E4 | D4 C6 B,2 C4 | (G,2 A,2 B,2 C2 D4) (C4- | C2 B,2 G,2 A,2 B,4 C4) | A,8 z4 C4- | %62
w: um a- ni- mae|me- ae a- ni-|mae * * * * me\-||ae, a\-|
 C4 G,4 (B,4 A,4) | C8 B,8- | B,16 |] %65
w: * ni- mae *|me- ae.||
V:3
 z16 | z16 | z16 | z8 A8- | A4 (^G2 ^F2 G4) A4 | E8 A6 G2 | F8 E8 | z16 | e16 | f12 e4 | e4 e8 d4 | %11
w: |||O|* Do\- * * mi-|ne Je- su|Chri- ste,||O|Do- mi-|ne Je- su|
 (c4 B4) (c2 B2 A2 G2 | A4) A8 (^G2 ^F2 | ^G4) A4 (D6 E2 | F2 G2 A6 G2 F4 | E4) A8 G2 (^F2 | %16
w: Chri\- * ste, * * *|* O Do\- *|* mi- ne *||* Je- su *|
 G4 =F2 E2) D8 | E4 A4 G6 G2 | G8 E4 A4 | (G8 c8) | B8 z4 B4 | c8 d8 | e8 z8 | z16 | G8 (A8 | %25
w: * * * Chri-|ste, O Do- mi-|ne Je- su|Chri\- *|ste, a-|do- ro|te,||a- do\-|
 B4 c6 B2 A4- | A4) ^G4 A8 | z4 A4 c6 B2 | A4 G4 F8 | E8 z8 | z4 A4 e8- | e4 d4 c4 B4 | A8 A8 | %33
w: |* ro te|in cru- ce|vul- ne- ra-|tum,|in cru\-|* ce vul- ne-|ra- tum|
 z8 z4 A4- | A4 E4 A4 B4 | (c6 B2 G4) A4- | A4 G4 F8 | E8 z4 e4- | e4 d4 B4 c4 | B4 c8 B4 | A8 B8 | %41
w: fel\-|* le et a-|ce\- * * to|* po- ta-|tum, fel\-|* le et a-|ce- to po-|ta- tum:|
 ^G16 | A12 ^F4 | =G4 d8 (e4- | e4 c4 d2 c2 c4- | c4) B4 c8 | z4 G4 A4 A4 | F8 z4 G4 | G8 E4 G4 | %49
w: de-|pre- cor|te, de- pre\-||* cor te,|de- pre- cor|te, ut|vul- ne- ra|
 A4 G4 c8 | z4 e4 f4 e4 | A4 A8 A4 | A8 c8 | d6 d2 c4 A4- | A2 A2 c4 B8 | A4 z2 A2 B4 c4 | %56
w: tu- a sint,|ut vul- ne-|ra tu- a|sint re-|me- di- um a\-|* ni- mae me-|ae, re- me- di-|
 G4 G4 A4 F4 | (G2 F2 E2 D2) C8 | z16 | z4 G4 A6 A2 | G4 E6 E2 G4 | F8 E8 | z4 E8 E4 | A12 ^G4 | %64
w: um a- ni- mae|me\- * * * ae,||re- me- di-|um a- ni- mae|me- ae,|a- ni-|mae me-|
 ^G16 |] %65
w: ae.|
V:4
 E,16 | F,12 E,4 | E,8 A,8- | A,4 G,4 (F,2 E,2 D,2 C,2 | D,4 E,8 A,,4) | A,,16 | z16 | z8 A,8- | %8
w: O|Do- mi-|ne Je\-|* su Chri\- * * *||ste,||O|
 A,4 (^G,2 ^F,2 G,4) A,4 | D,8 A,8- | A,4 G,4 (F,8 | E,6 D,2 C,4 D,4) | A,,8 z8 | z8 z4 D,4- | %14
w: * Do\- * * mi-|ne Je\-|* su Chri\-||ste,|O|
 D,4 (^C,2 B,,2 C,4) D,4 | A,,8 (E,8- | E,4 D,2 C,2) B,,4 (B,,4 | A,,6 B,,2 C,4) G,,4 | G,,8 A,,8 | %19
w: * Do\- * * mi-|ne Je\-|* * * su Chri\-|* * * ste,|Je- su|
 (C,4 G,,4 A,,8) | E,8 z4 E,4 | (A,6 G,2 F,4) G,4 | C,8 z8 | G,8 A,8 | B,8 C8 | z4 C,4 (F,6 E,2 | %26
w: Chri\- * *|ste, a-|do\- * * ro|te,|a- do-|ro te,|a- do\- *|
 D,4) E,4 A,,8- | A,,8 z8 | z4 E,4 A,8- | A,4 G,4 F,4 E,4 | D,8 C,8 | z16 | z4 D,8 A,,4 | %33
w: * ro te||in cru\-|* ce vul- ne-|ra- tum,||fel- le|
 D,4 E,4 (F,6 E,2 | D,4) ^C,4 D,4 B,,4 | A,,8 z8 | z16 | z4 E,8 A,,4 | C,4 D,4 (E,6 F,2 | %39
w: et a- ce\- *|* to po- ta-|tum,||fel- le|et a- ce\- *|
 G,4) A,8 G,4 | F,8 E,8- | E,8 E,8 | A,,12 D,4 | G,,8 G,8 | A,8 (F,8 | G,8) C,8 | z4 C,4 F,8 | %47
w: * to po-|ta- tum:|* de-|pre- cor|te, de-|pre- cor|* te,|de- pre-|
 D,8 C,8- | C,16 | z4 C,4 (C,8 | A,,4) C,4 D,4 C,4 | (F,6 E,2 D,2 C,2 D,4) | A,,16 | z16 | z8 E,8 | %55
w: cor te,||ut vul\-|* ne- ra tu-|a * * * *|sint||re-|
 F,6 F,2 E,4 C,4- | C,2 C,2 E,4 D,8 | C,8 z4 C,4 | F,6 F,2 E,4 C,4 | E,8 D,4 F,4 | C,8 z4 C,4 | %61
w: me- di- um a\-|* ni- mae me-|ae, re-|me- di- um a-|ni- mae me-|ae, re-|
 D,6 D,2 C,4 A,,4- | A,,2 A,,2 C,4 G,,4 (A,,4- | A,,2 B,,2 C,2 D,2 E,8- | E,16) |] %65
w: me- di- um a\-|* ni- mae me- ae.|||

